Papirus-Adapta/22x22/panel/gpmdp-tray-pause.svg

<svg xmlns="http://www.w3.org/2000/svg" width="22" height="22" version="1.1">
 <defs>
  <style id="current-color-scheme" type="text/css">
   .ColorScheme-Text { color:#cfd8dc; } .ColorScheme-Highlight { color:#00bcd4; }
  </style>
 </defs>
 <path style="fill:currentColor" class="ColorScheme-Text" d="m 16,14 0,6 2,0 0,-6 -2,0 z m 3,0 0,6 2,0 0,-6 -2,0 z M 4.8321785,3.0002592 c -0.2105737,0.00455 -0.393835,0.080379 -0.53125,0.2167969 -0.1952,0.191 -0.3007812,0.5002006 -0.3007812,0.9003906 l 0,13.7597653 c 0,0.40016 0.1145814,0.709411 0.3007812,0.900391 0.28372,0.28193 0.7270619,0.307932 1.2324219,0.0078 l 3.5878907,-2.091785 7.7636719,-4.523437 a 6,6 0 0 0 0.08594,-0.585937 6,6 0 0 1 -0.08594,0.585937 l 0.476562,-0.277344 c 0.85117,-0.49111 0.85117,-1.290815 0,-1.791015 L 16.882959,9.8225248 c -0.54756,-2.7493573 -2.972238,-4.8222656 -5.882812,-4.8222656 -0.65436,0 -1.2842397,0.106345 -1.8730466,0.3007812 L 5.5333504,3.2072905 C 5.2806604,3.0617754 5.0427524,2.9957111 4.8321785,3.0002592 Z m 3.6582032,2.5566406 c -0.063644,0.029542 -0.125087,0.062062 -0.1875,0.09375 0.062375,-0.031654 0.1238917,-0.064235 0.1875,-0.09375 z m -0.6074219,0.328125 c -0.071257,0.043706 -0.1416758,0.088212 -0.2109375,0.1347656 0.069334,-0.046571 0.139603,-0.091049 0.2109375,-0.1347656 z m 3.1171872,0.1152344 c 2.773606,0 5,2.2266829 5,4.9999998 2.5e-5,0.18825 -0.03354,0.373712 -0.05469,0.560547 L 9.0489754,15.576431 C 8.9207113,15.520876 8.7874778,15.476582 8.6642098,15.410415 l -0.021484,-0.01172 -0.023437,-0.01172 c -0.018751,-0.0089 -0.015315,-0.0025 -0.033203,-0.0098 -0.011032,-0.0088 -0.039139,-0.03097 -0.1542969,-0.09961 l -0.00195,0 c -0.074437,-0.04408 -0.1486541,-0.09079 -0.2207031,-0.138672 l -0.00781,-0.0059 c -0.08764,-0.05976 -0.1665977,-0.116865 -0.2402344,-0.173828 l -0.00195,-0.002 C 7.8809582,14.896298 7.8050185,14.833417 7.7306161,14.767837 l -0.00195,0 C 7.6274139,14.67883 7.5578254,14.620659 7.5216317,14.586197 l -0.00195,-0.002 -0.00195,-0.002 -0.00977,-0.01172 -0.013672,-0.01367 C 7.3753492,14.439942 7.2630412,14.318063 7.1563973,14.189712 c -0.037439,-0.04504 -0.088765,-0.114087 -0.15625,-0.205078 l -0.00195,-0.0039 -0.00195,-0.002 c -0.06382,-0.08453 -0.125298,-0.17123 -0.1836,-0.259725 l -0.00195,-0.0039 C 6.7574719,13.633177 6.7083419,13.555155 6.6642098,13.478775 l -0.00391,-0.0078 c -0.050824,-0.09094 -0.09752,-0.181484 -0.1425744,-0.275404 l -0.00195,-0.0039 -0.00195,-0.0039 c -0.056889,-0.115998 -0.09754,-0.192712 -0.1152406,-0.234387 l 0,-0.0019 C 6.3285179,12.783429 6.2663336,12.612393 6.2149911,12.437759 l 0,-0.0039 0,-0.002 c -0.010058,-0.03362 -0.027876,-0.102872 -0.054688,-0.208984 -0.032985,-0.13066 -0.059706,-0.263586 -0.082031,-0.396484 -0.01586,-0.09472 -0.028763,-0.16606 -0.035156,-0.21875 l 0,-0.0039 0,-0.0059 c -0.026085,-0.19872 -0.040906,-0.397233 -0.042969,-0.597652 0.00183,-0.116593 0.0076,-0.233426 0.017578,-0.349609 l 0,-0.0078 0.00195,-0.0059 c 0.00742,-0.103539 0.018032,-0.211356 0.033203,-0.322266 l 0,-0.002 0.00195,0 c 0.00619,-0.04658 0.012026,-0.09424 0.019531,-0.140625 l 0,-0.0039 c 0.021451,-0.128216 0.047982,-0.2532046 0.078125,-0.3749999 0.00638,-0.024246 0.012785,-0.048118 0.019531,-0.072266 l 0.00195,-0.00586 0.00195,-0.00586 C 6.2132936,9.5691955 6.2549814,9.4333852 6.3028817,9.3010404 l 0,-0.00195 c 4.834e-4,-0.00133 0.00147,-0.00257 0.00195,-0.00391 0.00414,-0.011131 0.00945,-0.022102 0.013672,-0.033203 l 0,-0.00391 0.00195,-0.00195 C 6.3729278,9.115486 6.4298139,8.9783568 6.4942879,8.8440092 l 0.00391,-0.00586 0,-0.00195 c 0.00567,-0.011444 0.011822,-0.021803 0.017578,-0.033203 l 0.00195,-0.00391 0.00195,-0.00391 c 0.063681,-0.1289157 0.1337284,-0.2566568 0.208987,-0.3808545 0.01287,-0.021263 0.025876,-0.041431 0.039063,-0.0625 C 6.8530323,8.2158071 6.9398952,8.0871184 7.0333504,7.965103 7.1352968,7.8321183 7.2397333,7.709706 7.3478035,7.5940092 l 0.00391,-0.00391 0.00977,-0.00977 c 0.914875,-0.9726409 2.1980382,-1.58007 3.6386635,-1.58007 z M 7.3087411,6.2854154 c -0.061573,0.048414 -0.1239804,0.095759 -0.1835938,0.1464844 0.059715,-0.050802 0.121914,-0.09801 0.1835938,-0.1464844 z m 9.6601559,4.1054686 c 0.0206,0.200236 0.03125,0.403597 0.03125,0.609375 0,-0.20579 -0.01102,-0.408917 -0.03125,-0.609375 z M 5.0001473,11.000259 a 6,6 0 0 0 0.021484,0.378906 6,6 0 0 1 -0.021484,-0.378906 z m 0.2558594,1.71875 a 6,6 0 0 0 0.1015625,0.289062 6,6 0 0 1 -0.1015625,-0.289062 z m 2.9355468,3.572266 a 6,6 0 0 0 0.4511719,0.214843 6,6 0 0 1 -0.4511719,-0.214843 z m 5.8085935,-5.291016 a 3,3 0 0 1 -3,3 3,3 0 0 1 -3.0000001,-3 3,3 0 0 1 3.0000001,-2.9999996 3,3 0 0 1 3,2.9999996 z"/>
</svg>

<svg xmlns="http://www.w3.org/2000/svg" width="22" height="22" version="1.1">
 <defs>
  <style id="current-color-scheme" type="text/css">
   .ColorScheme-Text { color:#dfdfdf; } .ColorScheme-Highlight { color:#4285f4; } .ColorScheme-NeutralText { color:#ff9800; } .ColorScheme-PositiveText { color:#4caf50; } .ColorScheme-NegativeText { color:#f44336; }
  </style>
 </defs>
 <path style="fill:currentColor" class="ColorScheme-Text" d="M 14,11 C 14,12.657 12.657,14 11,14 9.3433,14 8,12.657 8,11 8,9.3435 9.3433,8.0002 11,8.0002 12.657,8.0002 14,9.3435 14,11 Z M 4.8322,3.0002 C 4.6216,3.0049 4.4383,3.0807 4.3009,3.2172 4.1057,3.4082 4,3.7174 4,4.1175 V 17.877 C 4,18.277 4.1147,18.587 4.3,18.778 4.5846,19.06 5.028,19.086 5.5334,18.785 L 17.361,11.893 C 18.213,11.402 18.213,10.602 17.361,10.102 L 16.883,9.8226 C 16.335,7.0733 13.911,5.0002 11,5.0002 10.346,5.0002 9.7159,5.1067 9.1271,5.3002 L 5.5334,3.2074 C 5.2807,3.0619 5.0428,2.9958 4.8322,3.0002 Z M 11,6.0002 C 13.774,6.0002 16,8.227 16,11 16,11.189 15.967,11.374 15.945,11.561 L 9.049,15.576 C 8.3721,15.395 6,13.893 6,11 6,8.1502 8.3995,6.0002 11,6.0002 Z M 16,14 V 20 H 18 V 14 Z M 19,14 V 20 H 21 V 14 Z"/>
</svg>
